X: 10619
T: Dowd's Favourite
R: reel
M: 4/4
K: Ddorian
C|:A,DDE FEFC|A,CC2 A,CG,C|A,DDE FEFA|1 GEcE EDDC:|2 GecE EDDE||
F2 AF cFAF|F2 AF GECE|F2 AF cFAF|GECE FDDE|
F2 AF cFAF|F2 AF GECE|FEDC DddB|cAGE FDDz||
dAA2 d2ed|cGG2 cGEG|dAA2 d2ed|cAGE FDD2|
dAA2 d2ed|cGG2 cGEC|DEFG AddB|cAGE FDD||

